icon.svg

<?xml version="1.0" encoding="UTF-8" standalone="no"?>
<!-- Created with Inkscape (http://www.inkscape.org/) -->

<svg
   width="64"
   height="64"
   viewBox="0 0 1 1"
   version="1.1"
   id="svg8"
   inkscape:version="1.3.2 (091e20ef0f, 2023-11-25, custom)"
   sodipodi:docname="icon.svg"
   xml:space="preserve"
   inkscape:export-filename="icon_64x64.png"
   inkscape:export-xdpi="96"
   inkscape:export-ydpi="96"
   xmlns:inkscape="http://www.inkscape.org/namespaces/inkscape"
   xmlns:sodipodi="http://sodipodi.sourceforge.net/DTD/sodipodi-0.dtd"
   xmlns="http://www.w3.org/2000/svg"
   xmlns:svg="http://www.w3.org/2000/svg"
   xmlns:rdf="http://www.w3.org/1999/02/22-rdf-syntax-ns#"
   xmlns:cc="http://creativecommons.org/ns#"
   xmlns:dc="http://purl.org/dc/elements/1.1/"><defs
     id="defs2" /><sodipodi:namedview
     id="base"
     pagecolor="#ffffff"
     bordercolor="#666666"
     borderopacity="1.0"
     inkscape:pageopacity="0.0"
     inkscape:pageshadow="2"
     inkscape:zoom="7.8490188"
     inkscape:cx="40.896832"
     inkscape:cy="43.890836"
     inkscape:document-units="px"
     inkscape:current-layer="layer1"
     showgrid="false"
     units="px"
     inkscape:window-width="1632"
     inkscape:window-height="1003"
     inkscape:window-x="0"
     inkscape:window-y="0"
     inkscape:window-maximized="0"
     inkscape:showpageshadow="0"
     inkscape:pagecheckerboard="1"
     inkscape:deskcolor="#d1d1d1" /><metadata
     id="metadata5"><rdf:RDF><cc:Work
         rdf:about=""><dc:format>image/svg+xml</dc:format><dc:type
           rdf:resource="http://purl.org/dc/dcmitype/StillImage" /></cc:Work></rdf:RDF></metadata><g
     inkscape:label="Layer 1"
     inkscape:groupmode="layer"
     id="layer1"
     transform="translate(0,0)"><path
       id="rect1"
       style="fill:#000000;fill-opacity:1;fill-rule:evenodd;stroke:none;stroke-width:0.125;paint-order:fill markers stroke"
       d="M 0.49003369,0.08813658 0.0251289,0.4850482 0.1660896,0.4852313 v 0.35690308 c 0,0.0219328 0.0176485,0.0395813 0.0395813,0.0395813 H 0.41264066 V 0.651652 c 0,-0.0219328 0.0176485,-0.0395813 0.0395813,-0.0395813 h 0.0795368 c 0.0219328,0 0.0395813,0.0176485 0.0395813,0.0395813 V 0.88171568 H 0.786573 c 0.0219328,0 0.0395813,-0.0176485 0.0395813,-0.0395813 V 0.48617735 L 0.96793896,0.48636045 0.77638013,0.32675352 V 0.13681211 c 0,-0.0138677 -0.0111567,-0.0250549 -0.0250244,-0.0250549 h -0.096344 c -0.0138677,0 -0.0250549,0.0111872 -0.0250549,0.0250549 v 0.0679321 z"
       sodipodi:nodetypes="cccsscsssscsscccsssscc" /></g><g
     inkscape:groupmode="layer"
     id="layer2"
     inkscape:label="Layer 2" /></svg>

<svg width="64" height="64" version="1.1" viewBox="0 0 1 1" xmlns="http://www.w3.org/2000/svg">
	<g transform="matrix(.876 0 0 .873 .0616 .061)" fill="none" stroke="#657b83" stroke-width=".0536">
		<path d="m0.49 0.0881-0.465 0.397 0.141 1.83e-4v0.357c0 0.0219 0.0176 0.0396 0.0396 0.0396h0.332v-0.23c0-0.0219 0.0176-0.0396 0.0396-0.0396h0.0795c0.0219 0 0.0396 0.0176 0.0396 0.0396v0.23h0.0898c0.0219 0 0.0396-0.0176 0.0396-0.0396v-0.356l0.142 1.83e-4 -0.192-0.16v-0.19c0-0.0139-0.0112-0.0251-0.025-0.0251h-0.0963c-0.0139 0-0.0251 0.0112-0.0251 0.0251v0.0679z" fill-rule="evenodd" style="paint-order:fill markers stroke"/>
		<rect x=".267" y=".485" width=".159" height=".152" ry=".0357" style="paint-order:markers fill stroke"/>
	</g>
</svg>
